app/assets/images/payment_icons/mollie_giftcard.svg

<svg xmlns="http://www.w3.org/2000/svg" role="img" viewBox="0 0 38 24" width="38" height="24" aria-labelledby="pi-mollie_giftcard">
    <title id="pi-mollie_giftcard">Mollie Giftcard</title>
    <path d="M33.25 0H4.75C2.1375 0 0 1.8 0 4V20C0 22.2 2.1375 24 4.75 24H33.25C35.8625 24 38 22.2 38 20V4C38 1.8 35.8625 0 33.25 0Z" fill="black"/>
    <path d="M38 8H0V11H38V8Z" fill="white"/>
    <path d="M12.3 9H17.7V16.2L14.8 14.2L12.3 16.2V9Z" fill="white"/>
    <path d="M15.4 7.70002L19.9 5.40003C20.2 5.20003 20.7 5.40002 20.9 5.70002V5.80003C21 5.90003 21 6.00002 21 6.20002V12.9C21 13.3 20.7 13.7 20.2 13.7C20.1 13.7 20 13.7 19.9 13.6L15.4 11.3C15.1 11.1 15 10.9 15 10.5V8.50003C15 8.20003 15.1 7.90002 15.4 7.70002Z" fill="white"/>
    <path d="M14.6 7.70002L10.1 5.40003C9.8 5.20003 9.3 5.40002 9.1 5.70002V5.80003C9 5.90003 9 6.00002 9 6.20002V12.9C9 13.3 9.3 13.7 9.8 13.7C9.9 13.7 10 13.7 10.1 13.6L14.6 11.3C14.9 11.1 15 10.9 15 10.5V8.50003C15 8.20003 14.9 7.90002 14.6 7.70002Z" fill="white"/>
    <path d="M14.9 14C16.8 13.9 18.2 12.3 18.1 10.4C18.2 8.49999 16.8 6.89999 14.9 6.79999C13 6.89999 11.6 8.49999 11.7 10.4C11.6 12.3 13 13.9 14.9 14Z" fill="white"/>
</svg>

<svg xmlns="http://www.w3.org/2000/svg" role="img" viewBox="0 0 38 24" width="38" height="24" aria-labelledby="pi-mollie_giftcard"><title id="pi-mollie_giftcard">Mollie Giftcard</title><path d="M33.25 0H4.75C2.138 0 0 1.8 0 4v16c0 2.2 2.138 4 4.75 4h28.5c2.612 0 4.75-1.8 4.75-4V4c0-2.2-2.138-4-4.75-4z" fill="#000"/><path d="M38 8H0v3h38V8z" fill="#fff"/><path d="M12.3 9h5.4v7.2l-2.9-2-2.5 2V9z" fill="#fff"/><path d="M15.4 7.7l4.5-2.3c.3-.2.8 0 1 .3v.1c.1.1.1.2.1.4v6.7c0 .4-.3.8-.8.8-.1 0-.2 0-.3-.1l-4.5-2.3c-.3-.2-.4-.4-.4-.8v-2c0-.3.1-.6.4-.8z" fill="#fff"/><path d="M14.6 7.7l-4.5-2.3c-.3-.2-.8 0-1 .3v.1c-.1.1-.1.2-.1.4v6.7c0 .4.3.8.8.8.1 0 .2 0 .3-.1l4.5-2.3c.3-.2.4-.4.4-.8v-2c0-.3-.1-.6-.4-.8z" fill="#fff"/><path d="M14.9 14c1.9-.1 3.3-1.7 3.2-3.6.1-1.9-1.3-3.5-3.2-3.6-1.9.1-3.3 1.7-3.2 3.6-.1 1.9 1.3 3.5 3.2 3.6z" fill="#fff"/></svg>
